components/Common/Svg/svgs/protection.svg

<svg width="40" height="40" viewBox="0 0 40 40" fill="none" xmlns="http://www.w3.org/2000/svg">
<path fill-rule="evenodd" clip-rule="evenodd" d="M7.32322 7.32322C7.37011 7.27634 7.4337 7.25 7.5 7.25H32.5C32.5663 7.25 32.6299 7.27634 32.6768 7.32322C32.7237 7.37011 32.75 7.43369 32.75 7.5V16.6667C32.75 29.0802 22.2405 33.2117 20.0691 33.9316L20.0691 33.9316L20.0584 33.9353C20.0205 33.9483 19.9795 33.9483 19.9416 33.9353L19.9417 33.9352L19.9309 33.9316C17.7595 33.2117 7.25 29.0802 7.25 16.6667V7.5C7.25 7.4337 7.27634 7.37011 7.32322 7.32322ZM7.5 5.25C6.90326 5.25 6.33097 5.48705 5.90901 5.90901C5.48705 6.33097 5.25 6.90326 5.25 7.5V16.6667C5.25 30.4989 17.0082 35.0688 19.297 35.8285C19.7528 35.9838 20.2472 35.9838 20.703 35.8285C22.9918 35.0688 34.75 30.4989 34.75 16.6667V7.5C34.75 6.90326 34.5129 6.33097 34.091 5.90901C33.669 5.48705 33.0967 5.25 32.5 5.25H7.5ZM27.5655 15.7234C27.965 15.342 27.9797 14.709 27.5984 14.3095C27.217 13.91 26.584 13.8953 26.1845 14.2766L17.7083 22.3676L13.8155 18.6516C13.416 18.2703 12.783 18.285 12.4016 18.6845C12.0203 19.084 12.035 19.717 12.4345 20.0984L17.0178 24.4734C17.4042 24.8422 18.0123 24.8422 18.3988 24.4734L27.5655 15.7234Z" fill="#161616"/>
</svg>

<svg width="40" height="40" viewBox="0 0 40 40" fill="none" xmlns="http://www.w3.org/2000/svg"><path fill-rule="evenodd" clip-rule="evenodd" d="M7.323 7.323A.25.25 0 0 1 7.5 7.25h25a.25.25 0 0 1 .25.25v9.167c0 12.413-10.51 16.545-12.68 17.265l-.012.003a.18.18 0 0 1-.116 0l-.011-.003C17.759 33.212 7.25 29.08 7.25 16.667V7.5a.25.25 0 0 1 .073-.177ZM7.5 5.25A2.25 2.25 0 0 0 5.25 7.5v9.167c0 13.832 11.758 18.402 14.047 19.161.456.156.95.156 1.406 0 2.289-.76 14.047-5.33 14.047-19.161V7.5a2.25 2.25 0 0 0-2.25-2.25h-25Zm20.066 10.473a1 1 0 0 0-1.381-1.446l-8.477 8.09-3.892-3.715a1 1 0 0 0-1.382 1.446l4.584 4.375a1 1 0 0 0 1.38 0l9.168-8.75Z" fill="#161616"/></svg>
